icons/evolvere-blue-folders-flat-vivid-dark-fallback/apps/64/kscd.svg

<?xml version="1.0" encoding="UTF-8" standalone="no"?>
<!-- Created with Inkscape (http://www.inkscape.org/) -->

<svg
   xmlns:dc="http://purl.org/dc/elements/1.1/"
   xmlns:cc="http://creativecommons.org/ns#"
   xmlns:rdf="http://www.w3.org/1999/02/22-rdf-syntax-ns#"
   xmlns:svg="http://www.w3.org/2000/svg"
   xmlns="http://www.w3.org/2000/svg"
   xmlns:xlink="http://www.w3.org/1999/xlink"
   xmlns:sodipodi="http://sodipodi.sourceforge.net/DTD/sodipodi-0.dtd"
   xmlns:inkscape="http://www.inkscape.org/namespaces/inkscape"
   width="64"
   height="64"
   id="svg13094"
   version="1.1"
   inkscape:version="0.48.4 r9939"
   sodipodi:docname="kscd.svg">
  <sodipodi:namedview
     id="base"
     pagecolor="#ffffff"
     bordercolor="#666666"
     borderopacity="1.0"
     inkscape:pageopacity="0"
     inkscape:pageshadow="2"
     inkscape:zoom="8.0000004"
     inkscape:cx="46.610312"
     inkscape:cy="34.890164"
     inkscape:document-units="px"
     inkscape:current-layer="svg13094"
     showgrid="true"
     inkscape:snap-bbox="true"
     inkscape:bbox-paths="true"
     inkscape:bbox-nodes="true"
     inkscape:snap-bbox-edge-midpoints="true"
     inkscape:snap-bbox-midpoints="true"
     inkscape:object-paths="true"
     inkscape:snap-intersection-paths="true"
     inkscape:object-nodes="true"
     inkscape:snap-smooth-nodes="true"
     inkscape:snap-midpoints="true"
     inkscape:snap-object-midpoints="true"
     inkscape:snap-center="true"
     showguides="true"
     inkscape:guide-bbox="true"
     inkscape:window-width="1920"
     inkscape:window-height="1025"
     inkscape:window-x="-2"
     inkscape:window-y="32"
     inkscape:window-maximized="1"
     inkscape:snap-global="true"
     fit-margin-top="0"
     fit-margin-left="0"
     fit-margin-right="0"
     fit-margin-bottom="0"
     showborder="true"
     inkscape:showpageshadow="false"
     inkscape:snap-page="true">
    <inkscape:grid
       type="xygrid"
       id="grid3075"
       empspacing="5"
       visible="true"
       enabled="true"
       snapvisiblegridlinesonly="true"
       originx="1.6362304e-08px"
       originy="18px" />
  </sodipodi:namedview>
  <defs
     id="defs13096">
    <linearGradient
       id="linearGradient3966">
      <stop
         style="stop-color:#8dbad1;stop-opacity:1;"
         offset="0"
         id="stop3968" />
      <stop
         style="stop-color:#7f92a0;stop-opacity:1;"
         offset="1"
         id="stop3970" />
    </linearGradient>
    <radialGradient
       inkscape:collect="always"
       xlink:href="#linearGradient3966"
       id="radialGradient3844"
       gradientUnits="userSpaceOnUse"
       gradientTransform="matrix(0,1.7908163,-1.7908162,0,74.684399,-32.518224)"
       cx="27.752579"
       cy="23.835165"
       fx="27.752579"
       fy="23.835165"
       r="28" />
  </defs>
  <metadata
     id="metadata13099">
    <rdf:RDF>
      <cc:Work
         rdf:about="">
        <dc:format>image/svg+xml</dc:format>
        <dc:type
           rdf:resource="http://purl.org/dc/dcmitype/StillImage" />
        <dc:title />
      </cc:Work>
    </rdf:RDF>
  </metadata>
  <path
     inkscape:connector-curvature="0"
     style="color:#000000;fill:#2480df;fill-opacity:1;fill-rule:nonzero;stroke:none;stroke-width:2.28571415000000000;marker:none;visibility:visible;display:inline;overflow:visible;enable-background:accumulate"
     d="m 0,4 0,30 0,28 2,2 30,0 30,0 2,-2 L 64,34 64,4 32,4 0,4 z"
     id="path6498" />
  <path
     inkscape:connector-curvature="0"
     style="color:#000000;fill:#73c8ff;fill-opacity:1;fill-rule:nonzero;stroke:none;stroke-width:2.28571415000000000;marker:none;visibility:visible;display:inline;overflow:visible;enable-background:accumulate"
     d="M 2,0 0,1 0,4 32,4 64,4 64,1 62,0 32,0 2,0 z"
     id="path6502" />
  <path
     inkscape:connector-curvature="0"
     style="fill:#98d7ff;fill-opacity:1;fill-rule:nonzero"
     d="M 0,3 0,6 2,4 z"
     id="path4298"
     sodipodi:nodetypes="cccc" />
  <path
     d="M 64,6 62,4 64,3 z"
     id="path3028"
     style="fill:#4aa2ee;fill-opacity:1"
     inkscape:connector-curvature="0" />
  <path
     inkscape:connector-curvature="0"
     style="fill:#000000;fill-opacity:0.11130587;fill-rule:nonzero"
     d="M 63,0.5 63,34 63,63 64,62 64,34 64,1 63,0.5 z m 0,62.5 -31,0 -31,0 1,1 30,0 30,0 1,-1 z"
     id="path4366" />
  <g
     id="g3043"
     inkscape:export-filename="folder.png"
     inkscape:export-xdpi="90"
     inkscape:export-ydpi="90"
     transform="translate(-0.62500009,0.082283)" />
  <g
     id="scalable"
     transform="matrix(1.0385892,0,0,1.0385892,1214.7222,1878.8121)"
     inkscape:label="#g3701"
     style="fill:#ffffff" />
  <g
     transform="matrix(0.92952214,0,0,0.92952214,2.2286717,2.2975122)"
     id="g4151-8">
    <path
       style="fill:#a0b2cb;fill-opacity:1;fill-rule:nonzero;stroke:none"
       d="m 32.03125,25 c -4.970564,0 -9,4.029435 -9,9 0,4.970565 4.029436,9 9,9 4.970564,0 9,-4.029435 9,-9 0,-4.970565 -4.029436,-9 -9,-9 z m 0,6.03125 C 33.679377,31.03125 35,32.351873 35,34 c 0,1.648127 -1.320623,2.96875 -2.96875,2.96875 -1.648127,0 -3,-1.320623 -3,-2.96875 0,-1.648127 1.351873,-2.96875 3,-2.96875 z"
       id="path4409-4"
       inkscape:connector-curvature="0" />
    <path
       style="fill:#c1cee3;fill-opacity:1;fill-rule:nonzero;stroke:none"
       d="M 32.03125,6.03125 C 16.584532,6.03125 4.0625,18.553279 4.0625,34 c 0,15.446721 12.522032,27.96875 27.96875,27.96875 C 47.477968,61.96875 60,49.446721 60,34 60,18.553279 47.477968,6.03125 32.03125,6.03125 z m 0,18.742947 c 5.121784,0 9.225803,4.104019 9.225803,9.225803 0,5.121784 -4.104019,9.225803 -9.225803,9.225803 -5.121784,0 -9.322917,-4.104019 -9.322917,-9.225803 0,-5.121784 4.201133,-9.225803 9.322917,-9.225803 z"
       id="path4443-5"
       inkscape:connector-curvature="0" />
    <path
       inkscape:connector-curvature="0"
       id="path4441-4"
       d="M 12.249781,14.212059 C 6.7829261,19.678913 4.0516651,26.845865 4.0572854,34.011049 l 18.6968976,0 c 0.02031,-2.369403 0.94068,-4.738616 2.748326,-6.546262 1.80517,-1.80517 4.153029,-2.709543 6.502067,-2.71518 l 0,-18.7300437 c -7.150464,0.00561 -14.299171,2.736871 -19.754795,8.1924957 z m 19.754795,29.049383 0,18.696898 c 7.165184,0.0056 14.332136,-2.725641 19.79899,-8.192496 5.455625,-5.455624 8.186885,-12.604331 8.192496,-19.754795 l -18.730044,0 c -0.0056,2.349038 -0.91001,4.696897 -2.71518,6.502067 -1.807646,1.807646 -4.176859,2.728016 -6.546262,2.748326 z"
       style="color:#000000;fill:#ffffff;fill-opacity:0.52415024;fill-rule:nonzero;stroke:none;stroke-width:1.24910724;marker:none;visibility:visible;display:inline;overflow:visible;enable-background:accumulate" />
    <path
       style="font-size:medium;font-style:normal;font-variant:normal;font-weight:normal;font-stretch:normal;text-indent:0;text-align:start;text-decoration:none;line-height:normal;letter-spacing:normal;word-spacing:normal;text-transform:none;direction:ltr;block-progression:tb;writing-mode:lr-tb;text-anchor:start;baseline-shift:baseline;color:#000000;fill:#4a5462;fill-opacity:0.3828265;fill-rule:nonzero;stroke:none;visibility:visible;display:inline;overflow:visible;enable-background:accumulate;font-family:sans-serif"
       d="m 32.015625,23 c -6.06921,0 -11,4.93079 -11,11 0,6.06921 4.93079,11 11,11 6.06921,0 11,-4.93079 11,-11 0,-6.06921 -4.93079,-11 -11,-11 z m 0,1 c 5.52877,0 10,4.47123 10,10 0,5.52877 -4.47123,10 -10,10 -5.52877,0 -10,-4.47123 -10,-10 0,-5.52877 4.47123,-10 10,-10 z"
       id="path5170-6-5"
       inkscape:connector-curvature="0" />
  </g>
  <path
     style="color:#000000;fill:#1d70c6;fill-opacity:1;fill-rule:nonzero;stroke:none;stroke-width:2.28571415000000000;marker:none;visibility:visible;display:inline;overflow:visible;enable-background:accumulate"
     d="m 64,23.75 c -32,0 -32,20 -63.999999983637692,20 l 0,18.25 L 2,64 l 60,0 2,-2 z"
     id="path4006"
     inkscape:connector-curvature="0"
     sodipodi:nodetypes="ccccccc" />
  <path
     style="color:#000000;fill:#2480df;fill-opacity:1;fill-rule:nonzero;stroke:none;stroke-width:2.28571415000000000;marker:none;visibility:visible;display:inline;overflow:visible;enable-background:accumulate"
     d="M 56.125 24.21875 C 34.113345 26.901231 29.845693 40.663011 7.78125 43.3125 C 11.551501 53.01979 20.960194 59.90625 32 59.90625 C 46.358067 59.90625 58 48.26432 58 33.90625 C 58 30.479917 57.329428 27.214227 56.125 24.21875 z "
     id="path4009" />
  <g
     id="g3029"
     style="fill:#e2e8f2;fill-opacity:1">
    <path
       id="path3998"
       d="m 29.0625,47.90625 0,8.1875 L 36.09375,52 29.0625,47.90625 z M 17.03125,48.46875 11.1875,52 l 5.84375,3.53125 0,-2.71875 3.53125,2.125 0,-5.875 -3.53125,2.125 0,-2.71875 z M 11.1875,52 l 0,-2.34375 -1.1875,0 0,4.6875 1.1875,0 0,-2.34375 z m 35.78125,-3.53125 0,2.71875 -3.53125,-2.125 0,5.875 3.53125,-2.125 0,2.71875 L 52.8125,52 46.96875,48.46875 z M 52.8125,52 l 0,2.34375 1.1875,0 0,-4.6875 -1.1875,0 0,2.34375 z"
       style="color:#000000;fill:#e2e8f2;fill-opacity:1;fill-rule:nonzero;stroke:none;stroke-width:1;marker:none;visibility:visible;display:inline;overflow:visible;enable-background:accumulate"
       inkscape:connector-curvature="0" />
  </g>
</svg>

<svg xmlns="http://www.w3.org/2000/svg" viewBox="0 0 64 64"><g color="#000"><path d="m0 4v30 28l2 2h30 30l2-2v-28-30h-32-32" fill="#2480df"/><path d="m2 0l-2 1v3h32 32v-3l-2-1h-30-30" fill="#73c8ff"/></g><path d="m0 3v3l2-2z" fill="#98d7ff"/><path d="m64 6l-2-2 2-1z" fill="#4aa2ee"/><path d="m63 .5v33.5 29l1-1v-28-33l-1-.5m0 62.5h-31-31l1 1h30 30l1-1" fill-opacity=".111"/><g transform="matrix(.92952 0 0 .92952 2.229 2.298)"><path d="m32.03 25c-4.971 0-9 4.03-9 9 0 4.971 4.03 9 9 9 4.971 0 9-4.03 9-9 0-4.971-4.03-9-9-9m0 6.03c1.648 0 2.969 1.321 2.969 2.969 0 1.648-1.321 2.969-2.969 2.969-1.648 0-3-1.321-3-2.969 0-1.648 1.352-2.969 3-2.969" fill="#a0b2cb"/><path d="m32.03 6.03c-15.447 0-27.969 12.522-27.969 27.969 0 15.447 12.522 27.969 27.969 27.969 15.447 0 27.969-12.522 27.969-27.969 0-15.447-12.522-27.969-27.969-27.969m0 18.743c5.122 0 9.226 4.104 9.226 9.226 0 5.122-4.104 9.226-9.226 9.226-5.122 0-9.323-4.104-9.323-9.226 0-5.122 4.201-9.226 9.323-9.226" fill="#c1cee3"/><g color="#000"><path d="m12.25 14.212c-5.467 5.467-8.198 12.634-8.192 19.799h18.697c.02-2.369.941-4.739 2.748-6.546 1.805-1.805 4.153-2.71 6.502-2.715v-18.73c-7.15.006-14.299 2.737-19.755 8.192m19.755 29.05v18.697c7.165.006 14.332-2.726 19.799-8.192 5.456-5.456 8.187-12.604 8.192-19.755h-18.73c-.006 2.349-.91 4.697-2.715 6.502-1.808 1.808-4.177 2.728-6.546 2.748" fill="#fff" fill-opacity=".524"/><path d="m32.02 23c-6.069 0-11 4.931-11 11 0 6.069 4.931 11 11 11 6.069 0 11-4.931 11-11 0-6.069-4.931-11-11-11m0 1c5.529 0 10 4.471 10 10 0 5.529-4.471 10-10 10-5.529 0-10-4.471-10-10 0-5.529 4.471-10 10-10" fill-opacity=".383" fill="#4a5462"/></g></g><g color="#000"><path d="m64 23.75c-32 0-32 20-64 20v18.25l2 2h60l2-2z" fill="#1d70c6"/><path d="m56.13 24.22c-22.01 2.682-26.28 16.444-48.34 19.09 3.77 9.707 13.179 16.594 24.22 16.594 14.358 0 26-11.642 26-26 0-3.426-.671-6.692-1.875-9.688" fill="#2480df"/></g><g fill="#e2e8f2"><path d="m29.06 47.906v8.188l7.03-4.094-7.03-4.094m-12.03.563l-5.844 3.531 5.844 3.531v-2.719l3.531 2.125v-5.875l-3.531 2.125v-2.719m-5.844 3.531v-2.344h-1.188v4.688h1.188v-2.344m35.781-3.531v2.719l-3.531-2.125v5.875l3.531-2.125v2.719l5.844-3.531-5.844-3.531m5.844 3.531v2.344h1.188v-4.688h-1.188v2.344" color="#000"/></g></svg>
